X:188
T:Hommage \`a Philippe Bruneau
C:Gilles Lozier
S:Laurence Beaudry
Z:robin.beech@mcgill.ca
M:3/4
L:1/8
K:G
GB dB eB | d2- dB GA | B2- BA (3BAG | ED D4 | E2 g2- ge | d2- dB GA | 
B2- Be dB | BA A2- AD | GB dB eB | d2- dB GA | B2- BA (3BAG | ED D4 | 
EG ce ga | bg d2- dB | cA D2A2 |1 G2- GD DG :|2 G4- GA |:
Be ed ec | B2- BA (3GAB | Ac BA BG | E4 (3CDC | B,B B2A2 | B,A A2G2 |
E2 G2- GA | B2- Bc BA | Be ed ec | B2- BA (3GAB | Ac BA BG | E4 F2 |
GB dg ba | g2 e2- ec |1 B2- BB cB | e4- eA:|2 B2- BB cB | e4- eD |]

